X: 25206
T: Malcolm Johnstone
R: jig
M: 6/8
K: Dmajor
|:d2B AAA|GAA BdB|d2B AAA|Bee ege|
d2B AAA|GAA Bgf|ede g2e|fdd deg:|
|:ede a2e|g2e fdd|ede a2e|gdd egg|
ede a2e|g2f ege|dBA AAA|1 Bee e2d:|2 Bee efe||

